X:1
T:The Brisk Young Butcher
M:4/4
L:1/4
K:G
 D| G G G G| G B2 B| G D D D| D3| D| G G G G| G d B G| A D D D| D3|\
 D| A3/2 A/2 A A| A A D D| B3/2 B/2 B B| G3| G| A G F E| D C B, D|\
 G3/2 G/2 G G| G- A- B| G| G3/2 E/2 E E| E3 D| D G B d| d c B| A| G3/2 G/2 B A|\
 G3||

